src/images/Icons/FadedRed/Profile.svg

<svg fill="none" height="32" viewBox="0 0 32 32" width="32" xmlns="http://www.w3.org/2000/svg"><g fill="#ae8278"><path d="m15.9957 20.2329c-5.7507 0-10.66269.9067-10.66269 4.5333 0 3.628 4.88129 4.5667 10.66269 4.5667 5.7506 0 10.6626-.9053 10.6626-4.5333s-4.88-4.5667-10.6626-4.5667z"/><path d="m15.9955 16.7783c3.9173 0 7.056-3.14 7.056-7.05604 0-3.916-3.1387-7.056-7.056-7.056-3.916 0-7.05605 3.14-7.05605 7.056 0 3.91604 3.14005 7.05604 7.05605 7.05604z" opacity=".4"/></g></svg>

<svg width="32" height="32" viewBox="0 0 32 32" fill="none" xmlns="http://www.w3.org/2000/svg">
<path d="M15.9957 20.2329C10.245 20.2329 5.33301 21.1396 5.33301 24.7662C5.33301 28.3942 10.2143 29.3329 15.9957 29.3329C21.7463 29.3329 26.6583 28.4276 26.6583 24.7996C26.6583 21.1716 21.7783 20.2329 15.9957 20.2329Z" fill="#AE8278"/>
<path opacity="0.4" d="M15.9955 16.7783C19.9128 16.7783 23.0515 13.6383 23.0515 9.72226C23.0515 5.80626 19.9128 2.66626 15.9955 2.66626C12.0795 2.66626 8.93945 5.80626 8.93945 9.72226C8.93945 13.6383 12.0795 16.7783 15.9955 16.7783Z" fill="#AE8278"/>
</svg>
